src/assets/images/linkedin.svg

<svg width="40" height="40" viewBox="0 0 40 40" fill="currentColor" xmlns="http://www.w3.org/2000/svg">
<path d="M35.2381 0H4.7619C2.13333 0 0 2.13333 0 4.7619V35.2381C0 37.8667 2.13333 40 4.7619 40H35.2381C37.8667 40 40 37.8667 40 35.2381V4.7619C40 2.13333 37.8667 0 35.2381 0ZM12.381 15.2381V33.3333H6.66667V15.2381H12.381ZM6.66667 9.97143C6.66667 8.6381 7.80952 7.61905 9.52381 7.61905C11.2381 7.61905 12.3143 8.6381 12.381 9.97143C12.381 11.3048 11.3143 12.381 9.52381 12.381C7.80952 12.381 6.66667 11.3048 6.66667 9.97143ZM33.3333 33.3333H27.619C27.619 33.3333 27.619 24.5143 27.619 23.8095C27.619 21.9048 26.6667 20 24.2857 19.9619H24.2095C21.9048 19.9619 20.9524 21.9238 20.9524 23.8095C20.9524 24.6762 20.9524 33.3333 20.9524 33.3333H15.2381V15.2381H20.9524V17.6762C20.9524 17.6762 22.7905 15.2381 26.4857 15.2381C30.2667 15.2381 33.3333 17.8381 33.3333 23.1048V33.3333Z"/>
</svg>

<svg width="40" height="40" viewBox="0 0 40 40" fill="currentColor" xmlns="http://www.w3.org/2000/svg"><path d="M35.238 0H4.762A4.764 4.764 0 0 0 0 4.762v30.476A4.764 4.764 0 0 0 4.762 40h30.476A4.764 4.764 0 0 0 40 35.238V4.762A4.764 4.764 0 0 0 35.238 0M12.381 15.238v18.095H6.667V15.238zM6.667 9.971c0-1.333 1.143-2.352 2.857-2.352s2.79 1.02 2.857 2.352c0 1.334-1.067 2.41-2.857 2.41-1.714 0-2.857-1.076-2.857-2.41m26.666 23.362H27.62V23.81c0-1.905-.952-3.81-3.333-3.848h-.077c-2.304 0-3.257 1.962-3.257 3.848v9.523h-5.714V15.238h5.714v2.438s1.838-2.438 5.534-2.438c3.78 0 6.847 2.6 6.847 7.867z"/></svg>
